en/_assets/overview/solution-library-icon.svg

<svg width="34" height="34" viewBox="0 0 34 34" fill="none" xmlns="http://www.w3.org/2000/svg">
<circle cx="17" cy="15" r="10" fill="white"/>
<path d="M17 6C12.0274 6 8 10.0274 8 15C8 19.2296 10.9022 22.74 14.8178 23.7296C14.7726 23.617 14.7504 23.4592 14.7504 23.3022V21.7718H13.6252C13.0178 21.7718 12.4548 21.5022 12.2074 21.0066C11.9148 20.4666 11.8696 19.634 11.1274 19.1163C10.9022 18.9363 11.0822 18.7563 11.3296 18.7785C11.8022 18.9133 12.1844 19.2288 12.5444 19.7007C12.9044 20.1733 13.0622 20.2859 13.737 20.2859C14.0518 20.2859 14.5466 20.2637 14.997 20.1955C15.2444 19.5651 15.6718 19.0029 16.1896 18.7333C13.1748 18.3733 11.7348 16.8881 11.7348 14.8629C11.7348 13.9851 12.117 13.1525 12.7474 12.4325C12.5452 11.7347 12.2748 10.2947 12.8378 9.73251C14.1882 9.73251 14.9978 10.6103 15.2 10.8347C15.8748 10.6095 16.6178 10.4747 17.3822 10.4747C18.1696 10.4747 18.8896 10.6095 19.5644 10.8347C19.7666 10.6095 20.577 9.73251 21.9266 9.73251C22.4666 10.2725 22.2192 11.7347 21.994 12.4325C22.6244 13.1303 22.9844 13.9851 22.9844 14.8629C22.9844 16.8881 21.5666 18.3733 18.5748 18.6881C19.4074 19.1155 19.9926 20.3303 19.9926 21.2303V23.28C19.9926 23.3474 19.9704 23.4148 19.9704 23.4822C23.48 22.2674 26 18.9378 26 15C26 10.0274 21.9726 6 17 6Z" fill="#2D2C32"/>
</svg>

<svg xmlns="http://www.w3.org/2000/svg" width="34" height="34" fill="none"><circle cx="17" cy="15" r="10" fill="#fff"/><path fill="#2D2C32" d="M17 6c-4.973 0-9 4.027-9 9 0 4.23 2.902 7.74 6.818 8.73a1.215 1.215 0 0 1-.068-.428v-1.53h-1.125c-.607 0-1.17-.27-1.418-.765-.292-.54-.337-1.373-1.08-1.89-.225-.18-.045-.36.203-.338.472.134.854.45 1.214.922.36.472.518.585 1.193.585.315 0 .81-.022 1.26-.09.247-.63.675-1.193 1.193-1.463-3.015-.36-4.455-1.845-4.455-3.87 0-.878.382-1.71 1.012-2.43-.202-.698-.472-2.138.09-2.7 1.351 0 2.16.877 2.363 1.102a6.929 6.929 0 0 1 2.182-.36 6.82 6.82 0 0 1 2.182.36c.203-.226 1.013-1.102 2.363-1.102.54.54.292 2.002.067 2.7.63.697.99 1.552.99 2.43 0 2.025-1.417 3.51-4.41 3.825.833.428 1.419 1.642 1.419 2.542v2.05c0 .067-.023.135-.023.202A8.965 8.965 0 0 0 26 15c0-4.973-4.027-9-9-9Z"/></svg>
